justvector/etsy.svg

<?xml version="1.0" encoding="iso-8859-1"?>
<!-- Generator: Adobe Illustrator 15.0.0, SVG Export Plug-In . SVG Version: 6.00 Build 0)  -->
<!DOCTYPE svg PUBLIC "-//W3C//DTD SVG 1.1//EN" "http://www.w3.org/Graphics/SVG/1.1/DTD/svg11.dtd">
<svg version="1.1" id="Layer_1" xmlns="http://www.w3.org/2000/svg" xmlns:xlink="http://www.w3.org/1999/xlink" x="0px" y="0px"
	 width="100px" height="100px" viewBox="0 0 100 100" style="enable-background:new 0 0 100 100;" xml:space="preserve">
<path id="Etsy" d="M23.604,94.296c7.581-0.33,16.789,0,25.766,0c9.266,0,18.754-0.616,26.226,0c3.019,0.249,5.796,2.056,8.284,0.456
	c1.92-2.473,0.496-5.792,0.921-9.119c0.806-6.316,6.63-13.889-1.843-15.5c-3.609,3.289-1.176,6.412-3.219,10.486
	c-2.475,4.933-11.342,6.639-19.785,7.293c-7.246,0.563-19.947,1.289-22.547-3.646c-2.195-4.165-0.922-10.625-0.922-15.956
	c0-6.03-0.647-11.803,0.922-16.414c9.205,0.673,21.109-3.068,27.607,0.911c4.347,2.664,1.875,7.877,6.902,9.574
	c3.46-0.929,1.613-5.401,1.379-9.574c-0.148-2.689-0.137-6.468,0-9.574c0.186-4.192,1.804-9.054-2.762-9.118
	c-3.586,2.787-0.89,7.432-4.602,10.029c-1.186,0.832-3.762,1.183-5.518,1.37c-6.896,0.728-17.712,0.134-23.469-0.913
	c-0.793-8.402-0.725-19.852,0-28.266c3.125-3.104,10.313-3.212,15.185-3.193c8.535,0.034,21.845,0.744,24.386,5.016
	c1.383,2.324,0.287,7.188,2.762,7.75c4.979,1.137,2.559-7.747,2.762-11.854c0.15-3.079,1.511-5.062,0.918-7.295
	c-1.611-2.201-4.012-1.098-5.52-0.911C61.779,7.784,37.999,6.759,21.303,6.759c-1.994,0-5.477-0.994-6.901,1.368
	c-0.963,5.266,6.226,3.089,8.741,5.927c0.818,0.923,2.027,5,2.301,7.751c0.728,7.307,0,18.467,0,29.179
	c0,11.319,0.859,22.737,0,29.635c-0.3,2.409-1.753,6.289-2.301,6.839c-3.135,3.132-11.422-0.337-10.584,6.384
	C15.471,95.801,19.689,94.467,23.604,94.296z"/>
</svg>

<?xml version="1.0" encoding="UTF-8" standalone="no"?>
<!DOCTYPE svg PUBLIC "-//W3C//DTD SVG 1.1//EN" "http://www.w3.org/Graphics/SVG/1.1/DTD/svg11.dtd">
<svg width="100%" height="100%" viewBox="0 0 100 100" version="1.1" xmlns="http://www.w3.org/2000/svg" xmlns:xlink="http://www.w3.org/1999/xlink" xml:space="preserve" xmlns:serif="http://www.serif.com/" style="fill-rule:evenodd;clip-rule:evenodd;stroke-linejoin:round;stroke-miterlimit:2;">
    <path id="Etsy" d="M23.604,94.296C31.185,93.966 40.393,94.296 49.37,94.296C58.636,94.296 68.124,93.68 75.596,94.296C78.615,94.545 81.392,96.352 83.88,94.752C85.8,92.279 84.376,88.96 84.801,85.633C85.607,79.317 91.431,71.744 82.958,70.133C79.349,73.422 81.782,76.545 79.739,80.619C77.264,85.552 68.397,87.258 59.954,87.912C52.708,88.475 40.007,89.201 37.407,84.266C35.212,80.101 36.485,73.641 36.485,68.31C36.485,62.28 35.838,56.507 37.407,51.896C46.612,52.569 58.516,48.828 65.014,52.807C69.361,55.471 66.889,60.684 71.916,62.381C75.376,61.452 73.529,56.98 73.295,52.807C73.147,50.118 73.158,46.339 73.295,43.233C73.481,39.041 75.099,34.179 70.533,34.115C66.947,36.902 69.643,41.547 65.931,44.144C64.745,44.976 62.169,45.327 60.413,45.514C53.517,46.242 42.701,45.648 36.944,44.601C36.151,36.199 36.219,24.749 36.944,16.335C40.069,13.231 44.257,13.123 49.129,13.142C57.664,13.176 59.974,13.886 62.515,18.158C63.898,20.482 62.802,25.346 65.277,25.908C70.256,27.045 67.836,18.161 68.039,14.054C68.189,10.975 69.55,8.992 68.957,6.759C67.346,4.558 64.945,5.661 63.437,5.848C47.779,7.784 37.999,6.759 21.303,6.759C19.309,6.759 15.826,5.765 14.402,8.127C13.439,13.393 20.628,11.216 23.143,14.054C23.961,14.977 23.691,86.908 23.143,87.458C20.008,90.59 11.721,87.121 12.559,93.842C15.471,95.801 19.689,94.467 23.604,94.296Z" style="fill-rule:nonzero;"/>
</svg>
